icons/mini/information-circle.svg

<svg width="20" height="20" viewBox="0 0 20 20" fill="none" xmlns="http://www.w3.org/2000/svg">
<path fill-rule="evenodd" clip-rule="evenodd" d="M19 10.5C19 15.1944 15.1944 19 10.5 19C5.80558 19 2 15.1944 2 10.5C2 5.80558 5.80558 2 10.5 2C15.1944 2 19 5.80558 19 10.5ZM8.25 9.75C8.25 9.33579 8.58579 9 9 9H9.25338C10.3729 9 11.2046 10.0367 10.9617 11.1296L10.5026 13.1958C10.4679 13.3519 10.5867 13.5 10.7466 13.5H11C11.4142 13.5 11.75 13.8358 11.75 14.25C11.75 14.6642 11.4142 15 11 15H10.7466C9.62706 15 8.79542 13.9633 9.03829 12.8704L9.49743 10.8042C9.53213 10.6481 9.41332 10.5 9.25338 10.5H9C8.58579 10.5 8.25 10.1642 8.25 9.75ZM10 7C10.5523 7 11 6.55228 11 6C11 5.44772 10.5523 5 10 5C9.44771 5 9 5.44772 9 6C9 6.55228 9.44771 7 10 7Z" fill="#0F172A"/>
</svg>

<svg xmlns="http://www.w3.org/2000/svg" viewBox="0 0 20 20" fill="currentColor" aria-hidden="true">
  <path fill-rule="evenodd" d="M19 10.5a8.5 8.5 0 11-17 0 8.5 8.5 0 0117 0zM8.25 9.75A.75.75 0 019 9h.253a1.75 1.75 0 011.709 2.13l-.46 2.066a.25.25 0 00.245.304H11a.75.75 0 010 1.5h-.253a1.75 1.75 0 01-1.709-2.13l.46-2.066a.25.25 0 00-.245-.304H9a.75.75 0 01-.75-.75zM10 7a1 1 0 100-2 1 1 0 000 2z" clip-rule="evenodd"/>
</svg>
